assets/wallet_send.svg

<svg fill="none" height="13" viewBox="0 0 13 13" width="13" xmlns="http://www.w3.org/2000/svg"><path d="m.692606 11.0645 1.414214 1.4142 8.48528-8.48531v7.77821h2.0082v-11.200611l-11.20059-.000001v2.008182h7.77818z" fill="#5f5f5f"/></svg>

<svg width="13" height="13" viewBox="0 0 13 13" fill="none" xmlns="http://www.w3.org/2000/svg">
<path d="M0.692606 11.0645L2.10682 12.4787L10.5921 3.99339L10.5921 11.7716L12.6003 11.7716L12.6003 0.570989L1.39971 0.570988L1.39971 2.57917L9.17789 2.57917L0.692606 11.0645Z" fill="#5F5F5F"/>
</svg>
